icon/fa/car-rear.svg

<svg xmlns="http://www.w3.org/2000/svg" viewBox="0 0 512 512"><!--! Font Awesome Free 6.1.2 by @fontawesome - https://fontawesome.com License - https://fontawesome.com/license/free (Icons: CC BY 4.0, Fonts: SIL OFL 1.1, Code: MIT License) Copyright 2022 Fonticons, Inc.--><path d="M165.4 32h181.2c40.8 0 77.1 25.78 90.6 64.29l35.2 100.51c23.2 9.6 39.6 32.5 39.6 59.2v80c0 23.7-12.9 44.4-32 55.4V448c0 17.7-14.3 32-32 32h-32c-17.7 0-32-14.3-32-32v-48H128v48c0 17.7-14.3 32-32 32H64c-17.67 0-32-14.3-32-32v-56.6c-19.13-11-32-31.7-32-55.4v-80c0-26.7 16.36-49.6 39.61-59.2L74.8 96.29C88.27 57.78 124.6 32 165.4 32zm0 64c-13.6 0-25.7 8.6-30.2 21.4L109.1 192h293.8l-26.1-74.6c-4.5-12.8-16.6-21.4-30.2-21.4H165.4zM208 272c-8.8 0-16 7.2-16 16v32c0 8.8 7.2 16 16 16h96c8.8 0 16-7.2 16-16v-32c0-8.8-7.2-16-16-16h-96zM72 304h32c13.3 0 24-10.7 24-24s-10.7-24-24-24H72c-13.25 0-24 10.7-24 24s10.75 24 24 24zm336-48c-13.3 0-24 10.7-24 24s10.7 24 24 24h32c13.3 0 24-10.7 24-24s-10.7-24-24-24h-32z"/></svg>

<svg xmlns="http://www.w3.org/2000/svg" viewBox="0 0 512 512" height="1em" width="1em">
<!--! Font Awesome Free 6.1.2 by @fontawesome - https://fontawesome.com License - https://fontawesome.com/license/free (Icons: CC BY 4.0, Fonts: SIL OFL 1.1, Code: MIT License) Copyright 2022 Fonticons, Inc.-->
  <path d="M165.4 32H346.6C387.4 32 423.7 57.78 437.2 96.29L472.4 196.8C495.6 206.4 512 229.3 512 256V336C512 359.7 499.1 380.4 480 391.4V448C480 465.7 465.7 480 448 480H416C398.3 480 384 465.7 384 448V400H128V448C128 465.7 113.7 480 96 480H64C46.33 480 32 465.7 32 448V391.4C12.87 380.4 0 359.7 0 336V256C0 229.3 16.36 206.4 39.61 196.8L74.8 96.29C88.27 57.78 124.6 32 165.4 32V32zM165.4 96C151.8 96 139.7 104.6 135.2 117.4L109.1 192H402.9L376.8 117.4C372.3 104.6 360.2 96 346.6 96H165.4zM208 272C199.2 272 192 279.2 192 288V320C192 328.8 199.2 336 208 336H304C312.8 336 320 328.8 320 320V288C320 279.2 312.8 272 304 272H208zM72 304H104C117.3 304 128 293.3 128 280C128 266.7 117.3 256 104 256H72C58.75 256 48 266.7 48 280C48 293.3 58.75 304 72 304zM408 256C394.7 256 384 266.7 384 280C384 293.3 394.7 304 408 304H440C453.3 304 464 293.3 464 280C464 266.7 453.3 256 440 256H408z"/>
</svg>
